packages/webapp/public/images/template-logos/hubspot.svg

<svg width="62" height="62" viewBox="0 0 62 62" fill="none" xmlns="http://www.w3.org/2000/svg">
<path d="M42.2685 23.4874V18.2477C42.962 17.9242 43.5485 17.4106 43.9604 16.7666C44.3724 16.1229 44.5935 15.3754 44.5958 14.611V14.4907C44.5958 12.2623 42.7898 10.4559 40.5602 10.4559H40.4416C39.371 10.4559 38.3446 10.881 37.5882 11.6377C36.8319 12.3943 36.406 13.4206 36.406 14.4907V14.611C36.4106 15.3754 36.6294 16.1229 37.0414 16.7666C37.4533 17.4106 38.0398 17.9242 38.7333 18.2477V23.4874C36.7434 23.7921 34.8677 24.6173 33.2991 25.8792L18.9303 14.6868C19.0327 14.3169 19.0862 13.9366 19.0909 13.5548C19.0932 12.6556 18.8279 11.776 18.3298 11.0274C17.8318 10.2788 17.122 9.69477 16.2934 9.34917C15.4626 9.00357 14.548 8.91192 13.6659 9.08584C12.7839 9.25976 11.974 9.6914 11.3363 10.3262C10.6986 10.961 10.2658 11.7705 10.0889 12.6521C9.91201 13.5338 10.0004 14.4481 10.3425 15.2793C10.687 16.1106 11.2688 16.8216 12.0159 17.3222C12.763 17.8228 13.6403 18.0906 14.5387 18.0918C15.3253 18.0881 16.098 17.8782 16.7775 17.4827L30.9275 28.4939C29.6568 30.4142 28.9936 32.673 29.0261 34.9757C29.0564 37.2785 29.7802 39.5183 31.1044 41.4035L26.8012 45.7087C26.4522 45.5975 26.0891 45.5384 25.7237 45.5335C24.9859 45.534 24.2645 45.7534 23.6524 46.164C23.038 46.5743 22.5609 47.1575 22.277 47.8394C21.9954 48.5215 21.9232 49.2718 22.0652 49.9959C22.2095 50.7196 22.5655 51.3846 23.0869 51.9066C23.6105 52.4284 24.2737 52.784 24.9975 52.928C25.7213 53.0723 26.473 52.9985 27.1549 52.7165C27.8368 52.4342 28.421 51.9561 28.8306 51.3427C29.2402 50.7292 29.4613 50.0077 29.4613 49.2697C29.4566 48.9044 29.3962 48.542 29.2844 48.1941L33.5435 43.9349C34.9329 45.0038 36.5456 45.7409 38.2632 46.0892C39.9807 46.4376 41.7541 46.3885 43.4508 45.9454C45.145 45.5023 46.7159 44.677 48.0425 43.5327C49.3714 42.3886 50.4187 40.9559 51.1053 39.3443C51.7941 37.7326 52.1037 35.985 52.0106 34.2354C51.9198 32.4855 51.4288 30.78 50.5746 29.2496C49.7228 27.7189 48.5312 26.4038 47.0906 25.4051C45.65 24.4062 44.0023 23.7504 42.2685 23.4874ZM40.5044 40.7202C39.7178 40.7418 38.9334 40.6054 38.2003 40.3194C37.4672 40.0331 36.7993 39.6031 36.2361 39.054C35.6706 38.505 35.2238 37.8487 34.9166 37.1235C34.6093 36.3984 34.4534 35.6192 34.4534 34.8321C34.4534 34.045 34.6093 33.2658 34.9166 32.5406C35.2238 31.8154 35.6706 31.1589 36.2361 30.6101C36.7993 30.0611 37.4672 29.631 38.2003 29.3448C38.9334 29.0585 39.7178 28.9224 40.5044 28.944C42.0288 28.9973 43.474 29.6406 44.5353 30.7381C45.5942 31.8355 46.1877 33.3017 46.19 34.8277C46.19 36.3537 45.5988 37.8203 44.5399 38.9191C43.4787 40.0175 42.0358 40.6622 40.5114 40.7171" fill="#FF7A59"/>
</svg>

<svg xmlns="http://www.w3.org/2000/svg" width="62" height="62" fill="none"><path d="M42.269 23.487v-5.24a4.03 4.03 0 0 0 1.692-1.481 4.02 4.02 0 0 0 .635-2.156v-.12c0-2.228-1.806-4.035-4.036-4.035h-.119c-1.071 0-2.097.425-2.853 1.182s-1.182 1.783-1.182 2.853v.12a4.04 4.04 0 0 0 .635 2.156 4.03 4.03 0 0 0 1.692 1.481v5.24a11.43 11.43 0 0 0-5.434 2.392L18.93 14.687a4.44 4.44 0 0 0 .161-1.132 4.54 4.54 0 0 0-.761-2.527 4.55 4.55 0 0 0-4.664-1.942 4.55 4.55 0 0 0-2.33 1.24 4.54 4.54 0 0 0-1.247 2.326 4.55 4.55 0 0 0 .254 2.627 4.56 4.56 0 0 0 1.673 2.043 4.54 4.54 0 0 0 2.523.77c.787-.004 1.559-.214 2.239-.609l14.15 11.011c-1.271 1.92-1.934 4.179-1.901 6.482s.754 4.543 2.078 6.428l-4.303 4.305c-.349-.111-.712-.17-1.078-.175-.738.001-1.459.22-2.071.631a3.74 3.74 0 0 0-1.375 1.675c-.282.682-.354 1.432-.212 2.157a3.74 3.74 0 0 0 2.932 2.932c.724.144 1.476.071 2.157-.211a3.73 3.73 0 0 0 1.676-1.374c.41-.614.631-1.335.631-2.073a3.67 3.67 0 0 0-.177-1.076l4.259-4.259a11.48 11.48 0 0 0 4.72 2.154c1.718.348 3.491.299 5.188-.144s3.265-1.268 4.592-2.413 2.376-2.577 3.063-4.188a11.45 11.45 0 0 0 .905-5.109c-.091-1.75-.582-3.455-1.436-4.986s-2.043-2.846-3.484-3.844a11.48 11.48 0 0 0-4.822-1.918zM40.504 40.72a5.9 5.9 0 0 1-2.304-.401c-.733-.286-1.401-.716-1.964-1.265a5.89 5.89 0 0 1-1.319-1.931 5.87 5.87 0 0 1 0-4.583c.307-.725.754-1.382 1.319-1.93s1.231-.979 1.964-1.265 1.517-.422 2.304-.401c1.524.053 2.97.697 4.031 1.794s1.652 2.564 1.655 4.09-.591 2.993-1.65 4.091-2.504 1.743-4.029 1.798" fill="#ff7a59"/></svg>
